!!!OTL: Daogu fengshou duimancang
!!!ARE: Asia, China,ÿAnhui Qimen
!! III, 538, 2)
!!!SCT: C2048
!!!YEM: Copyright 1995, estate of Helmut Schaffrath.
**kern
*ICvox
*Ivox
*M2/4
*k[f#c#]
*D:
{8d
16d
16f#
4a
=1
8f#
8d
8d
16e
16f#
=2
2e}
=3
{8f#
8d
8d
16e
16f#
=4
2B}
=5
{8d
16B
16d
4e
=6
16d
16e
16d
16B
4A
=7
8.d
16B
4A}
=8
{8d
16e
16f#
8d
8A
=9
8B
4B
8d
=10
16e
16f#
16e
16B
4A}
=11
{8a
16d
16f#
4e
=12
8d
16e
16f#
8d
8A
=13
8B
4B
8d
=14
16e
16f#
16d
16B
[4A
=15
4A]
4r}
==
!!!AGN: Xiaodiao
!!!AMT: simple duple
!!!AIN: vox
!!!EED: Helmut Schaffrath
!!!EEV: 1.0
*-
!!!ONB: Tied note syntax fixed by Craig Sapp, 2004/05/03/
